X:0380
T:The Buffoon Dance.
M:C|
L:1/8
Q:1/2=108
I: :: ::
Z:Jack Campin * www.campin.me.uk * 2009
K:D
A2|d3 e f2ed|g2g2 g2fe|d3 e f2ed|edcB A2A2|
   d3 e f2ed|g2g2 g2ag|f2ed e2dc|d4   d2 :|
fg|a2a2 g2f2|g2z2 z2ef|g2g2 f2e2|f2z2 z2
fg|a2a2 g2f2|g3a  b2g2|a2g2 f2d2|edcB A2A2|
   d3 e f2ed|g2g2 g2fe|d3 e f2ed|edcB A2A2|
   d3 e f2ed|g2g2 g2ag|f2ed e2dc|d4   d2 :|

